src/assets/light.svg

<?xml version="1.0" encoding="UTF-8"?>
<svg width="40px" height="40px" viewBox="0 0 40 40" version="1.1" xmlns="http://www.w3.org/2000/svg" xmlns:xlink="http://www.w3.org/1999/xlink">
    <!-- Generator: Sketch 53 (72520) - https://sketchapp.com -->
    <title>Group 8</title>
    <desc>Created with Sketch.</desc>
    <g id="Page-1" stroke="none" stroke-width="1" fill="none" fill-rule="evenodd">
        <g id="首页" transform="translate(-168.000000, -416.000000)">
            <g id="Group-8" transform="translate(168.000000, 416.000000)">
                <rect id="Rectangle-2" fill="#42CD44" x="0" y="0" width="40" height="40" rx="12"></rect>
                <path d="M29.9004611,25.862644 L29.9004611,27.1739069 C29.9004611,28.4852005 26.1193495,29.6957107 26.1193495,29.6957107 L26.1193495,32.2173913 L13.781142,32.2173913 L13.781142,29.6957107 C13.781142,29.6957107 10,28.3843247 10,27.1739069 L10,25.862644 L13.781142,25.862644 L13.781142,22.1304533 C13.781142,22.1304533 10,20.8191596 10,19.6087726 L10,18.2973558 L13.781142,18.2973558 L13.781142,14.5652882 C13.781142,14.5652882 10,13.2538714 10,12.0434844 L10,10.7321908 L13.781142,10.7321908 C13.781142,8.7148278 15.3730659,7 17.462745,7 L22.4378679,7 C24.5273952,7 26.218858,8.7148278 26.218858,10.7321908 L30,10.7321908 L30,12.0434844 C30,13.3547473 26.218858,14.5652882 26.218858,14.5652882 L26.218858,18.2973558 L30,18.2973558 L30,19.6087726 C30,20.9200355 26.218858,22.1304533 26.218858,22.1304533 L26.218858,25.862644 L29.9004611,25.862644 Z M20.4347189,9.60869565 C18.9738557,9.60869565 17.826087,10.7564644 17.826087,12.2173276 C17.826087,13.6781908 18.9738557,14.826087 20.4347189,14.826087 C21.8955821,14.826087 23.0434783,13.6781908 23.0434783,12.2173276 C23.0434783,10.7564644 21.8955821,9.60869565 20.4347189,9.60869565 Z M20.4347189,16.5652174 C18.9738557,16.5652174 17.826087,17.7131135 17.826087,19.1739767 C17.826087,20.6348399 18.9738557,21.7826087 20.4347189,21.7826087 C21.8955821,21.7826087 23.0434783,20.6348399 23.0434783,19.1739767 C23.0434783,17.7131135 21.8955821,16.5652174 20.4347189,16.5652174 Z M20.4347189,24.3913043 C18.9738557,24.3913043 17.826087,25.5390731 17.826087,26.9999363 C17.826087,28.4607995 18.9738557,29.6086957 20.4347189,29.6086957 C21.8955821,29.6086957 23.0434783,28.4607995 23.0434783,26.9999363 C23.0434783,25.5390731 21.8955821,24.3913043 20.4347189,24.3913043 Z" id="xinhaodeng" fill="#FFFFFF"></path>
            </g>
        </g>
    </g>
</svg>

<svg width="40" height="40" xmlns="http://www.w3.org/2000/svg"><g fill="none" fill-rule="evenodd"><rect fill="#42CD44" width="40" height="40" rx="12"/><path d="M29.9 25.863v1.31c0 1.312-3.78 2.523-3.78 2.523v2.521H13.78v-2.521S10 28.384 10 27.174v-1.311h3.781V22.13S10 20.82 10 19.61v-1.312h3.781v-3.732S10 13.254 10 12.043v-1.31h3.781C13.781 8.714 15.373 7 17.463 7h4.975c2.09 0 3.78 1.715 3.78 3.732H30v1.311c0 1.312-3.781 2.522-3.781 2.522v3.732H30v1.312c0 1.311-3.781 2.521-3.781 2.521v3.733H29.9zM20.435 9.609a2.583 2.583 0 0 0-2.609 2.608 2.583 2.583 0 0 0 2.609 2.61 2.583 2.583 0 0 0 2.608-2.61 2.583 2.583 0 0 0-2.608-2.608zm0 6.956a2.583 2.583 0 0 0-2.609 2.609 2.583 2.583 0 0 0 2.609 2.609 2.583 2.583 0 0 0 2.608-2.609 2.583 2.583 0 0 0-2.608-2.609zm0 7.826A2.583 2.583 0 0 0 17.826 27a2.583 2.583 0 0 0 2.609 2.609 2.583 2.583 0 0 0 2.608-2.61 2.583 2.583 0 0 0-2.608-2.608z" fill="#FFF"/></g></svg>
